X:1
T:St. Flavian, CM
T:Day’s Psalter, 1563
T:St. Flavian, CM
T:Public Domain
C:Day&#8217;s Psalter, 1563
Z:Public Domain
%%score ( 1 2 ) 3
L:1/8
M:4/4
K:F
V:1 treble 
V:2 treble 
V:3 bass 
V:1
 [CF]2 | [CF]2 [CE]2 [CF]2 [FA]2 | [FG]2 [EG]2 F2 F2 | [FB]2 [FA]2 F2 [EG]2 | [EA]6 [FA]2 | %5
 [FA]2 [FB]2 [Ec]2 [EA]2 | [DF]2 [EG]2 [FA]2 [FA]2 | [EG]2 F2 [DF]2 [CE]2 | [CF]6 |] %9
V:2
 x2 | x8 | x4 F2 F2 | x4 F2 x2 | x8 | x8 | x8 | x2 F2 x4 | x6 |] %9
V:3
 [F,A,]2 | [C,G,]2 [C,G,]2 [F,A,]2 [D,D]2 | [B,,D]2 [C,C]2 [F,A,]2 [F,A,]2 | %3
 [D,B,]2 [F,C]2 [B,D]2 [B,D]2 | [A,^C]6 [F,=C]2 | [F,C]2 [D,B,]2 [C,G,]2 [C,A,]2 | %6
 [D,A,]2 [C,C]2 [F,C]2 [F,C]2 | [C,C]2 [D,A,]2 [B,,G,]2 [C,G,]2 | [F,A,]6 |] %9

